X:46
T:Rantin Bille
T:Ranting Roaring Willie,aka
M:9/4
L:1/4
Q:3/4=100
S:D.Wright, Extraordinary Collection, London 1713
Z:Pete Stewart, 2004 <www.hornpipemusic.co.uk>
K:F
A/B/ | A>FDD>EDF>GA | c>dcc>GEG2A/B/ | A>FDD>EDF>GA | d>ed^F2GA2A/4B/4c/ |
d>ed^F2GA2A/B/ | c>dcc>GEG2B | A>FAB2AB>dB | A>FDE2DD2 ||
A | d>eff>efd2A | c>dee>fe^c2B/A/ | d>eff>eff>ef | d>eff>edf/g/af |
d>eff>efd2A | c>dee>fe^c2B/A/ | BdA=B2AB>dB | A>FDA>FDD2 ||
B | A>FDA>FDA>FD | c>GEc>GEG2B | A>FD A>FD A>FD | d>ed^F2GA2B/c/ |
d>ed^F2GA2A/B/ | c>dcc>GEG2B | A>FAB2AB>cB | A>FDE2DD2 |]

